packages/icons/raw/imported/ChatComment.svg

<svg width="32" height="32" viewBox="0 0 32 32" fill="none" xmlns="http://www.w3.org/2000/svg">
<path d="M11.8462 21.9815L11.8462 21.4815L11.6838 21.4815L11.5524 21.5769L11.8462 21.9815ZM8.58752 24.3474L8.29376 23.9428L8.58752 24.3474ZM21 21.9815L21 21.4815L21 21.9815ZM6.5 10.5L6.5 23.5382L7.5 23.5382L7.5 10.5L6.5 10.5ZM24.5 10.5L24.5 17.9815L25.5 17.9815L25.5 10.5L24.5 10.5ZM21 6.00003L11 6.00001L11 7.00001L21 7.00003L21 6.00003ZM11.5524 21.5769L8.29376 23.9428L8.88128 24.752L12.1399 22.3861L11.5524 21.5769ZM21 21.4815L11.8462 21.4815L11.8462 22.4815L21 22.4815L21 21.4815ZM25.5 10.5C25.5 8.01475 23.4853 6.00003 21 6.00003L21 7.00003C22.933 7.00003 24.5 8.56703 24.5 10.5L25.5 10.5ZM7.5 10.5C7.5 8.56701 9.06701 7 11 7.00001L11 6.00001C8.51472 6 6.5 8.01472 6.5 10.5L7.5 10.5ZM6.5 23.5382C6.5 24.7636 7.8897 25.4719 8.88128 24.752L8.29376 23.9428C7.96323 24.1828 7.5 23.9466 7.5 23.5382L6.5 23.5382ZM24.5 17.9815C24.5 19.9145 22.933 21.4815 21 21.4815L21 22.4815C23.4853 22.4815 25.5 20.4668 25.5 17.9815L24.5 17.9815Z" fill="black"/>
</svg>

<svg width="32" height="32" fill="none" xmlns="http://www.w3.org/2000/svg"><path d="M11.846 21.982v-.5h-.162l-.132.095.294.404Zm-3.258 2.365-.294-.404.294.404ZM21 21.981v-.5.5ZM6.5 10.5v13.038h1V10.5h-1Zm18 0v7.482h1V10.5h-1ZM21 6H11v1h10V6Zm-9.448 15.577-3.258 2.366.587.809 3.259-2.366-.588-.81ZM21 21.48h-9.154v1H21v-1ZM25.5 10.5A4.5 4.5 0 0 0 21 6v1a3.5 3.5 0 0 1 3.5 3.5h1Zm-18 0A3.5 3.5 0 0 1 11 7V6a4.5 4.5 0 0 0-4.5 4.5h1Zm-1 13.038c0 1.226 1.39 1.934 2.381 1.214l-.587-.81a.5.5 0 0 1-.794-.404h-1Zm18-5.556a3.5 3.5 0 0 1-3.5 3.5v1a4.5 4.5 0 0 0 4.5-4.5h-1Z" fill="#000"/></svg>
